code-block-brackets.svg

<svg  viewBox="0 0 24 24" fill="currentColor"><path  d="M2 3V13H6V11H4V5H6V3H2M12 11H10V13H14V3H10V5H12V11M22 6V18C22 19.11 21.11 20 20 20H4C2.9 20 2 19.11 2 18V15H4V18H20V6H17.03V4H20C21.11 4 22 4.89 22 6Z"/></svg>

<svg fill="currentColor" viewBox="0 0 24 24"><path d="M2 3v10h4v-2H4V5h2V3zm10 8h-2v2h4V3h-4v2h2zm10-5v12c0 1.11-.89 2-2 2H4a2 2 0 0 1-2-2v-3h2v3h16V6h-2.97V4H20c1.11 0 2 .89 2 2"/></svg>
